X: 1
T: Eamonn Coyne's Reel
T: the Mint in the Corn
T: Geordie Affleck
Z: Barney <G.Bahn-Koepke@t-online.de> irtrad-l 2000-09-01
Z: corrected by Nigel Gatherer <gatherer@argonet.co.uk>
B: CRE 2, no. 191 as "Gan ainm"
N: Caoimhin Mac Aoidh supplied this information on it:
N: "No 191 is a tune which Francie Dearg & Mickey Ban O  Beirn  played
N: in  D  and  John  Doherty  and  Danny O'Donnell played in A.  Tommy
N: Peoples learned it in Donegal from the  old  lads.   John  and  the
N: Deargs  called  it 'The Mint in the Corn'.  It is the Scottish Reel
N: 'Geordie Affleck' normally played there in E Flat."
M: 4/4
L: 1/8
R: reel
K: G
   Bc dB GA BG | AD (3DDD cA   FA  | Bc dB GA BG | AD EF G3A |
   Bc dB GA BG | AD (3DDD AD (3DDD | Bc dB GA BG | AD EF G3A ||
|: BG Bd gf ed  | cA ce ag fe | fg af de fd | ed ^ce d2 ef |
   gf ed ef a2- | ag fe dc BA | Bc dB GA BG | AD FA G4 :||
